; G-Code generated by Simplify3D(R) Version 4.1.2
; Oct 18, 2019 at 12:48:07 PM
; Settings Summary
;   processName,Process1
;   applyToModels,U Long Bracket,Multi Purpose Bracket
;   profileName,Prusa Research Original Prusa i3 MK3 (modified)
;   profileVersion,2018-01-19 08:00:00
;   baseProfile,
;   printMaterial,PLA
;   printQuality,Fast
;   printExtruders,
;   extruderName,Primary Extruder
;   extruderToolheadNumber,0
;   extruderDiameter,0.4
;   extruderAutoWidth,1
;   extruderWidth,0.48
;   extrusionMultiplier,1
;   extruderUseRetract,1
;   extruderRetractionDistance,1
;   extruderExtraRestartDistance,0
;   extruderRetractionZLift,0
;   extruderRetractionSpeed,2400
;   extruderUseCoasting,1
;   extruderCoastingDistance,0.2
;   extruderUseWipe,1
;   extruderWipeDistance,2
;   primaryExtruder,0
;   layerHeight,0.3
;   topSolidLayers,3
;   bottomSolidLayers,3
;   perimeterOutlines,2
;   printPerimetersInsideOut,1
;   startPointOption,2
;   startPointOriginX,0
;   startPointOriginY,0
;   sequentialIslands,0
;   spiralVaseMode,0
;   firstLayerHeightPercentage,150
;   firstLayerWidthPercentage,100
;   firstLayerUnderspeed,0.5
;   useRaft,0
;   raftExtruder,0
;   raftTopLayers,3
;   raftBaseLayers,2
;   raftOffset,3
;   raftSeparationDistance,0.14
;   raftTopInfill,100
;   aboveRaftSpeedMultiplier,0.3
;   useSkirt,1
;   skirtExtruder,0
;   skirtLayers,1
;   skirtOutlines,2
;   skirtOffset,4
;   usePrimePillar,0
;   primePillarExtruder,999
;   primePillarWidth,12
;   primePillarLocation,7
;   primePillarSpeedMultiplier,1
;   useOozeShield,0
;   oozeShieldExtruder,999
;   oozeShieldOffset,2
;   oozeShieldOutlines,1
;   oozeShieldSidewallShape,1
;   oozeShieldSidewallAngle,30
;   oozeShieldSpeedMultiplier,1
;   infillExtruder,0
;   internalInfillPattern,Rectilinear
;   externalInfillPattern,Rectilinear
;   infillPercentage,15
;   outlineOverlapPercentage,20
;   infillExtrusionWidthPercentage,100
;   minInfillLength,5
;   infillLayerInterval,1
;   internalInfillAngles,45,-45
;   overlapInternalInfillAngles,0
;   externalInfillAngles,45,-45
;   generateSupport,0
;   supportExtruder,0
;   supportInfillPercentage,25
;   supportExtraInflation,0
;   supportBaseLayers,0
;   denseSupportExtruder,0
;   denseSupportLayers,0
;   denseSupportInfillPercentage,70
;   supportLayerInterval,1
;   supportHorizontalPartOffset,0.3
;   supportUpperSeparationLayers,1
;   supportLowerSeparationLayers,1
;   supportType,0
;   supportGridSpacing,4
;   maxOverhangAngle,45
;   supportAngles,0
;   temperatureName,Primary Extruder,Heated Bed
;   temperatureNumber,0,0
;   temperatureSetpointCount,1,1
;   temperatureSetpointLayers,1,1
;   temperatureSetpointTemperatures,200,60
;   temperatureStabilizeAtStartup,1,1
;   temperatureHeatedBed,0,1
;   fanLayers,1,2
;   fanSpeeds,0,100
;   blipFanToFullPower,0
;   adjustSpeedForCooling,1
;   minSpeedLayerTime,15
;   minCoolingSpeedSlowdown,20
;   increaseFanForCooling,0
;   minFanLayerTime,45
;   maxCoolingFanSpeed,100
;   increaseFanForBridging,0
;   bridgingFanSpeed,100
;   use5D,1
;   relativeEdistances,0
;   allowEaxisZeroing,1
;   independentExtruderAxes,0
;   includeM10123,0
;   stickySupport,1
;   applyToolheadOffsets,0
;   gcodeXoffset,0
;   gcodeYoffset,0
;   gcodeZoffset,0
;   overrideMachineDefinition,1
;   machineTypeOverride,0
;   strokeXoverride,250
;   strokeYoverride,210
;   strokeZoverride,210
;   originOffsetXoverride,0
;   originOffsetYoverride,0
;   originOffsetZoverride,0
;   homeXdirOverride,-1
;   homeYdirOverride,-1
;   homeZdirOverride,-1
;   flipXoverride,1
;   flipYoverride,-1
;   flipZoverride,1
;   toolheadOffsets,0,0|0,0|0,0|0,0|0,0|0,0
;   overrideFirmwareConfiguration,1
;   firmwareTypeOverride,RepRap (Marlin/Repetier/Sprinter)
;   GPXconfigOverride,r2
;   baudRateOverride,115200
;   overridePrinterModels,1
;   printerModelsOverride
;   startingGcode,M115 U3.0.7 ; use the latest firmware version,G28 W ; home all axes without mesh bed leveling,G80 ; run mesh bed leveling routine,G1 Y-3.0 F1000.0 ; prepare to prime,G92 E0 ; reset extrusion distance,G1 X60.0 E9.0  F1000.0 ; priming,G1 X100.0 E12.5  F1000.0 ; priming
;   layerChangeGcode,
;   retractionGcode,
;   toolChangeGcode,
;   endingGcode,G4 ; wait,M106 S0 ; turn off cooling fan,M104 S0 ; turn off extruder,M140 S0 ; turn off bed,G1 X0 Y200 ; part removal,M84 ; disable motors
;   exportFileFormat,gcode
;   celebration,0
;   celebrationSong,Random Song
;   postProcessing,
;   defaultSpeed,4800
;   outlineUnderspeed,0.5
;   solidInfillUnderspeed,0.8
;   supportUnderspeed,0.8
;   rapidXYspeed,12000
;   rapidZspeed,1002
;   minBridgingArea,50
;   bridgingExtraInflation,0
;   bridgingExtrusionMultiplier,1
;   bridgingSpeedMultiplier,1
;   useFixedBridgingAngle,0
;   fixedBridgingAngle,0
;   applyBridgingToPerimeters,0
;   filamentDiameters,1.75|1.75|1.75|1.75|1.75|1.75
;   filamentPricesPerKg,46|46|46|46|46|46
;   filamentDensities,1.25|1.25|1.25|1.25|1.25|1.25
;   useMinPrintHeight,0
;   minPrintHeight,0
;   useMaxPrintHeight,0
;   maxPrintHeight,0
;   useDiaphragm,0
;   diaphragmLayerInterval,20
;   robustSlicing,1
;   mergeAllIntoSolid,0
;   onlyRetractWhenCrossingOutline,1
;   retractBetweenLayers,1
;   useRetractionMinTravel,0
;   retractionMinTravel,3
;   retractWhileWiping,1
;   onlyWipeOutlines,1
;   avoidCrossingOutline,0
;   maxMovementDetourFactor,3
;   toolChangeRetractionDistance,12
;   toolChangeExtraRestartDistance,-0.5
;   toolChangeRetractionSpeed,600
;   externalThinWallType,0
;   internalThinWallType,2
;   thinWallAllowedOverlapPercentage,25
;   singleExtrusionMinLength,1
;   singleExtrusionMinPrintingWidthPercentage,50
;   singleExtrusionMaxPrintingWidthPercentage,200
;   singleExtrusionEndpointExtension,0.2
;   horizontalSizeCompensation,0
G90
M82
M106 S0
M140 S60
M190 S60
M104 S200 T0
M109 S200 T0
M115 U3.0.7 ; use the latest firmware version
G28 W ; home all axes without mesh bed leveling
G80 ; run mesh bed leveling routine
G1 Y-3.0 F1000.0 ; prepare to prime
G92 E0 ; reset extrusion distance
G1 X60.0 E9.0  F1000.0 ; priming
G1 X100.0 E12.5  F1000.0 ; priming
; process Process1
; layer 1, Z = 0.450
T0
G92 E0.0000
G1 E-1.0000 F2400
; feature skirt
; tool H0.450 W0.480
G1 Z0.450 F1002
G1 X93.008 Y77.540 F12000
G1 E0.0000 F2400
G92 E0.0000
G1 X93.688 Y76.730 E0.0950 F2400
G1 X93.980 Y76.438 E0.1320
G1 X94.790 Y75.758 E0.2270
G1 X95.039 Y75.576 E0.2548
G1 X95.594 Y75.222 E0.3139
G1 X95.865 Y75.073 E0.3416
G1 X96.824 Y74.626 E0.4366
G1 X97.211 Y74.485 E0.4736
G1 X98.283 Y74.198 E0.5732
G1 X98.689 Y74.127 E0.6103
G1 X99.691 Y74.039 E0.7006
G1 X99.780 Y74.035 E0.7086
G1 X99.780 Y71.662 E0.9217
G1 X102.545 Y68.898 E1.2728
G1 X147.455 Y68.898 E5.3059
G1 X150.220 Y71.662 E5.6570
G1 X150.220 Y74.035 E5.8701
G1 X150.309 Y74.039 E5.8781
G1 X151.311 Y74.127 E5.9684
G1 X151.717 Y74.198 E6.0054
G1 X152.789 Y74.485 E6.1051
G1 X153.176 Y74.626 E6.1421
G1 X154.135 Y75.073 E6.2371
G1 X154.406 Y75.222 E6.2648
G1 X154.961 Y75.576 E6.3239
G1 X155.210 Y75.758 E6.3517
G1 X156.020 Y76.438 E6.4467
G1 X156.312 Y76.730 E6.4837
G1 X156.992 Y77.540 E6.5787
G1 X157.174 Y77.789 E6.6064
G1 X157.528 Y78.344 E6.6655
G1 X157.677 Y78.615 E6.6933
G1 X158.124 Y79.574 E6.7883
G1 X158.265 Y79.961 E6.8253
G1 X158.552 Y81.033 E6.9249
G1 X158.623 Y81.439 E6.9619
G1 X158.711 Y82.441 E7.0523
G1 X158.720 Y82.647 E7.0708
G1 X158.720 Y104.838 E9.0635
G1 X155.955 Y107.602 E9.4147
G1 X148.382 Y107.602 E10.0948
G1 X148.265 Y108.039 E10.1354
G1 X148.124 Y108.426 E10.1724
G1 X147.677 Y109.385 E10.2674
G1 X147.597 Y109.530 E10.2823
G1 X152.088 Y109.530 E10.6855
G1 X154.852 Y112.295 E11.0367
G1 X154.852 Y140.205 E13.5431
G1 X152.088 Y142.970 E13.8942
G1 X95.912 Y142.970 E18.9389
G1 X93.148 Y140.205 E19.2900
G1 X93.148 Y112.295 E21.7964
G1 X95.912 Y109.530 E22.1476
G1 X102.403 Y109.530 E22.7304
G1 X102.323 Y109.385 E22.7453
G1 X101.898 Y108.473 E22.8357
G1 X101.786 Y108.185 E22.8634
G1 X101.603 Y107.602 E22.9183
G1 X94.045 Y107.602 E23.5970
G1 X91.280 Y104.838 E23.9481
G1 X91.280 Y82.647 E25.9409
G1 X91.289 Y82.441 E25.9594
G1 X91.372 Y81.490 E26.0451
G1 X91.419 Y81.185 E26.0728
G1 X91.550 Y80.593 E26.1273
G1 X91.604 Y80.394 E26.1458
G1 X91.786 Y79.815 E26.2003
G1 X91.898 Y79.527 E26.2280
G1 X92.323 Y78.615 E26.3184
G1 X92.472 Y78.344 E26.3461
G1 X92.826 Y77.789 E26.4052
G1 X93.008 Y77.540 E26.4330
G92 E0.0000
G1 E-1.0000 F2400
G1 X93.386 Y77.837 F12000
G1 E0.0000 F2400
G92 E0.0000
G1 X94.043 Y77.054 E0.0917 F2400
G1 X94.304 Y76.793 E0.1250
G1 X95.087 Y76.136 E0.2167
G1 X95.310 Y75.972 E0.2416
G1 X95.839 Y75.635 E0.2979
G1 X96.082 Y75.502 E0.3228
G1 X97.008 Y75.070 E0.4145
G1 X97.356 Y74.944 E0.4477
G1 X98.387 Y74.667 E0.5436
G1 X98.751 Y74.603 E0.5769
G1 X99.723 Y74.518 E0.6644
G1 X99.907 Y74.510 E0.6810
G1 X100.260 Y74.510 E0.7127
G1 X100.260 Y71.861 E0.9505
G1 X102.744 Y69.378 E1.2660
G1 X147.256 Y69.378 E5.2633
G1 X149.740 Y71.861 E5.5787
G1 X149.740 Y74.510 E5.8166
G1 X150.093 Y74.510 E5.8483
G1 X150.277 Y74.518 E5.8649
G1 X151.249 Y74.603 E5.9524
G1 X151.613 Y74.667 E5.9857
G1 X152.644 Y74.944 E6.0815
G1 X152.992 Y75.070 E6.1148
G1 X153.918 Y75.502 E6.2065
G1 X154.161 Y75.635 E6.2314
G1 X154.690 Y75.972 E6.2877
G1 X154.913 Y76.136 E6.3126
G1 X155.696 Y76.793 E6.4043
G1 X155.957 Y77.054 E6.4376
G1 X156.614 Y77.837 E6.5293
G1 X156.778 Y78.060 E6.5542
G1 X157.115 Y78.589 E6.6105
G1 X157.248 Y78.832 E6.6354
G1 X157.680 Y79.758 E6.7271
G1 X157.806 Y80.106 E6.7603
G1 X158.083 Y81.137 E6.8562
G1 X158.147 Y81.501 E6.8895
G1 X158.232 Y82.473 E6.9770
G1 X158.240 Y82.657 E6.9936
G1 X158.240 Y104.639 E8.9676
G1 X155.756 Y107.122 E9.2830
G1 X148.013 Y107.122 E9.9784
G1 X147.806 Y107.894 E10.0501
G1 X147.680 Y108.242 E10.0834
G1 X147.248 Y109.168 E10.1751
G1 X147.115 Y109.411 E10.2000
G1 X146.778 Y109.940 E10.2563
G1 X146.726 Y110.010 E10.2641
G1 X151.889 Y110.010 E10.7277
G1 X154.372 Y112.494 E11.0432
G1 X154.372 Y140.006 E13.5138
G1 X151.889 Y142.490 E13.8293
G1 X96.111 Y142.490 E18.8382
G1 X93.628 Y140.006 E19.1537
G1 X93.628 Y112.494 E21.6244
G1 X96.111 Y110.010 E21.9398
G1 X103.274 Y110.010 E22.5830
G1 X103.222 Y109.939 E22.5908
G1 X102.885 Y109.411 E22.6471
G1 X102.752 Y109.168 E22.6720
G1 X102.340 Y108.284 E22.7596
G1 X102.239 Y108.025 E22.7845
G1 X102.051 Y107.428 E22.8408
G1 X101.985 Y107.158 E22.8657
G1 X101.978 Y107.122 E22.8690
G1 X94.244 Y107.122 E23.5636
G1 X91.760 Y104.639 E23.8790
G1 X91.760 Y82.657 E25.8530
G1 X91.768 Y82.473 E25.8696
G1 X91.849 Y81.548 E25.9530
G1 X91.891 Y81.273 E25.9779
G1 X92.017 Y80.707 E26.0300
G1 X92.065 Y80.528 E26.0466
G1 X92.239 Y79.975 E26.0987
G1 X92.340 Y79.716 E26.1237
G1 X92.752 Y78.832 E26.2112
G1 X92.885 Y78.589 E26.2361
G1 X93.222 Y78.061 E26.2924
G1 X93.386 Y77.837 E26.3173
G92 E0.0000
G1 E-1.0000 F2400
; feature inner perimeter
G1 X97.314 Y80.869 F12000
G1 E0.0000 F2400
G92 E0.0000
G1 X97.488 Y80.642 E0.0257 F1800
G1 X97.681 Y80.431 E0.0514
G1 X97.892 Y80.238 E0.0771
G1 X98.119 Y80.064 E0.1028
G1 X98.360 Y79.910 E0.1285
G1 X98.614 Y79.778 E0.1541
G1 X98.878 Y79.668 E0.1799
G1 X99.151 Y79.582 E0.2055
G1 X99.430 Y79.521 E0.2312
G1 X99.714 Y79.483 E0.2569
G1 X100.016 Y79.470 E0.2840
G1 X105.220 Y79.470 E0.7514
G1 X105.220 Y74.338 E1.2123
G1 X144.780 Y74.338 E4.7649
G1 X144.780 Y79.470 E5.2258
G1 X149.984 Y79.470 E5.6931
G1 X150.286 Y79.483 E5.7202
G1 X150.570 Y79.521 E5.7459
G1 X150.849 Y79.582 E5.7716
G1 X151.122 Y79.668 E5.7973
G1 X151.386 Y79.778 E5.8230
G1 X151.640 Y79.910 E5.8487
G1 X151.881 Y80.064 E5.8744
G1 X152.108 Y80.238 E5.9001
G1 X152.319 Y80.431 E5.9258
G1 X152.512 Y80.642 E5.9515
G1 X152.686 Y80.869 E5.9771
G1 X152.840 Y81.110 E6.0028
G1 X152.972 Y81.364 E6.0285
G1 X153.082 Y81.628 E6.0542
G1 X153.168 Y81.901 E6.0799
G1 X153.229 Y82.180 E6.1056
G1 X153.267 Y82.464 E6.1313
G1 X153.280 Y82.766 E6.1584
G1 X153.280 Y102.162 E7.9003
G1 X146.220 Y102.162 E8.5343
G1 X146.220 Y96.530 E9.0401
G1 X143.280 Y96.530 E9.3041
G1 X143.280 Y105.234 E10.0858
G1 X143.267 Y105.536 E10.1129
G1 X143.229 Y105.820 E10.1386
G1 X143.168 Y106.099 E10.1643
G1 X143.082 Y106.372 E10.1899
G1 X142.972 Y106.636 E10.2156
G1 X142.840 Y106.890 E10.2413
G1 X142.686 Y107.131 E10.2670
G1 X142.512 Y107.358 E10.2927
G1 X142.319 Y107.569 E10.3184
G1 X142.108 Y107.762 E10.3441
G1 X141.881 Y107.936 E10.3698
G1 X141.640 Y108.090 E10.3955
G1 X141.386 Y108.222 E10.4212
G1 X141.122 Y108.332 E10.4469
G1 X140.849 Y108.418 E10.4725
G1 X140.570 Y108.479 E10.4982
G1 X140.286 Y108.517 E10.5239
G1 X139.984 Y108.530 E10.5510
G1 X110.016 Y108.530 E13.2423
G1 X109.714 Y108.517 E13.2694
G1 X109.430 Y108.479 E13.2951
G1 X109.151 Y108.418 E13.3208
G1 X108.878 Y108.332 E13.3464
G1 X108.614 Y108.222 E13.3721
G1 X108.360 Y108.090 E13.3978
G1 X108.119 Y107.936 E13.4235
G1 X107.892 Y107.762 E13.4492
G1 X107.681 Y107.569 E13.4749
G1 X107.488 Y107.358 E13.5006
G1 X107.314 Y107.131 E13.5263
G1 X107.160 Y106.890 E13.5520
G1 X107.028 Y106.636 E13.5777
G1 X106.918 Y106.372 E13.6034
G1 X106.832 Y106.099 E13.6290
G1 X106.770 Y105.819 E13.6547
G1 X106.733 Y105.536 E13.6804
G1 X106.720 Y105.234 E13.7075
G1 X106.720 Y96.530 E14.4892
G1 X103.780 Y96.530 E14.7532
G1 X103.780 Y102.162 E15.2590
G1 X96.720 Y102.162 E15.8930
G1 X96.720 Y82.766 E17.6349
G1 X96.732 Y82.500 E17.6588
G1 X96.771 Y82.177 E17.6880
G1 X96.832 Y81.901 E17.7134
G1 X96.918 Y81.628 E17.7391
G1 X97.028 Y81.364 E17.7648
G1 X97.160 Y81.110 E17.7905
G1 X97.206 Y81.038 E17.7982
G1 X97.314 Y80.869 F1800
; feature outer perimeter
G1 X96.920 Y80.594 F12000
G92 E0.0000
G1 X97.120 Y80.333 E0.0295 F1200
G1 X97.341 Y80.091 E0.0589
G1 X97.583 Y79.870 E0.0884
G1 X97.844 Y79.670 E0.1178
G1 X98.120 Y79.494 E0.1473
G1 X98.411 Y79.342 E0.1767
G1 X98.714 Y79.217 E0.2062
G1 X99.027 Y79.118 E0.2356
G1 X99.347 Y79.047 E0.2651
G1 X99.672 Y79.005 E0.2946
G1 X100.005 Y78.990 E0.3245
G1 X104.740 Y78.990 E0.7497
G1 X104.740 Y73.858 E1.2106
G1 X145.260 Y73.858 E4.8494
G1 X145.260 Y78.990 E5.3103
G1 X149.995 Y78.990 E5.7355
G1 X150.328 Y79.005 E5.7654
G1 X150.653 Y79.047 E5.7949
G1 X150.973 Y79.118 E5.8243
G1 X151.286 Y79.217 E5.8538
G1 X151.589 Y79.342 E5.8832
G1 X151.880 Y79.494 E5.9127
G1 X152.156 Y79.670 E5.9421
G1 X152.417 Y79.870 E5.9716
G1 X152.659 Y80.091 E6.0010
G1 X152.880 Y80.333 E6.0305
G1 X153.080 Y80.594 E6.0600
G1 X153.256 Y80.870 E6.0894
G1 X153.407 Y81.161 E6.1189
G1 X153.533 Y81.464 E6.1483
G1 X153.632 Y81.777 E6.1778
G1 X153.703 Y82.097 E6.2072
G1 X153.745 Y82.422 E6.2367
G1 X153.760 Y82.755 E6.2666
G1 X153.760 Y102.642 E8.0525
G1 X145.740 Y102.642 E8.7727
G1 X145.740 Y97.010 E9.2786
G1 X143.760 Y97.010 E9.4564
G1 X143.760 Y105.245 E10.1959
G1 X143.745 Y105.578 E10.2258
G1 X143.703 Y105.903 E10.2552
G1 X143.632 Y106.223 E10.2847
G1 X143.533 Y106.536 E10.3141
G1 X143.407 Y106.839 E10.3436
G1 X143.256 Y107.130 E10.3731
G1 X143.080 Y107.406 E10.4025
G1 X142.880 Y107.667 E10.4320
G1 X142.659 Y107.909 E10.4614
G1 X142.417 Y108.130 E10.4909
G1 X142.156 Y108.330 E10.5203
G1 X141.880 Y108.506 E10.5498
G1 X141.589 Y108.657 E10.5792
G1 X141.286 Y108.783 E10.6087
G1 X140.973 Y108.882 E10.6382
G1 X140.653 Y108.953 E10.6676
G1 X140.328 Y108.995 E10.6971
G1 X139.995 Y109.010 E10.7270
G1 X110.005 Y109.010 E13.4201
G1 X109.672 Y108.995 E13.4500
G1 X109.347 Y108.953 E13.4795
G1 X109.027 Y108.882 E13.5090
G1 X108.714 Y108.783 E13.5384
G1 X108.411 Y108.657 E13.5679
G1 X108.120 Y108.506 E13.5973
G1 X107.843 Y108.330 E13.6268
G1 X107.583 Y108.130 E13.6562
G1 X107.341 Y107.909 E13.6857
G1 X107.120 Y107.667 E13.7151
G1 X106.920 Y107.406 E13.7446
G1 X106.744 Y107.130 E13.7741
G1 X106.593 Y106.839 E13.8035
G1 X106.467 Y106.536 E13.8330
G1 X106.368 Y106.223 E13.8624
G1 X106.297 Y105.903 E13.8919
G1 X106.255 Y105.578 E13.9213
G1 X106.240 Y105.245 E13.9512
G1 X106.240 Y97.010 E14.6908
G1 X104.260 Y97.010 E14.8686
G1 X104.260 Y102.642 E15.3744
G1 X96.240 Y102.642 E16.0946
G1 X96.240 Y82.755 E17.8805
G1 X96.253 Y82.460 E17.9070
G1 X96.298 Y82.096 E17.9400
G1 X96.368 Y81.777 E17.9693
G1 X96.467 Y81.464 E17.9988
G1 X96.593 Y81.161 E18.0282
G1 X96.744 Y80.870 E18.0577
G1 X96.813 Y80.762 E18.0692
G1 X96.920 Y80.594 F1200
