; G-Code generated by Simplify3D(R) Version 4.1.2
; Oct 18, 2019 at 1:57:36 PM
; Settings Summary
;   processName,Process1
;   applyToModels,U Long Bracket,Multi Purpose Bracket,Multi Purpose Bracket(2),U Bracket,forearm
;   profileName,Prusa Research Original Prusa i3 MK3 (modified)
;   profileVersion,2018-01-19 08:00:00
;   baseProfile,
;   printMaterial,PLA
;   printQuality,Fast
;   printExtruders,
;   extruderName,Primary Extruder
;   extruderToolheadNumber,0
;   extruderDiameter,0.4
;   extruderAutoWidth,1
;   extruderWidth,0.48
;   extrusionMultiplier,1
;   extruderUseRetract,1
;   extruderRetractionDistance,1
;   extruderExtraRestartDistance,0
;   extruderRetractionZLift,0
;   extruderRetractionSpeed,2400
;   extruderUseCoasting,1
;   extruderCoastingDistance,0.2
;   extruderUseWipe,1
;   extruderWipeDistance,2
;   primaryExtruder,0
;   layerHeight,0.3
;   topSolidLayers,3
;   bottomSolidLayers,3
;   perimeterOutlines,2
;   printPerimetersInsideOut,1
;   startPointOption,2
;   startPointOriginX,0
;   startPointOriginY,0
;   sequentialIslands,0
;   spiralVaseMode,0
;   firstLayerHeightPercentage,150
;   firstLayerWidthPercentage,100
;   firstLayerUnderspeed,0.5
;   useRaft,0
;   raftExtruder,0
;   raftTopLayers,3
;   raftBaseLayers,2
;   raftOffset,3
;   raftSeparationDistance,0.14
;   raftTopInfill,100
;   aboveRaftSpeedMultiplier,0.3
;   useSkirt,1
;   skirtExtruder,0
;   skirtLayers,1
;   skirtOutlines,2
;   skirtOffset,4
;   usePrimePillar,0
;   primePillarExtruder,999
;   primePillarWidth,12
;   primePillarLocation,7
;   primePillarSpeedMultiplier,1
;   useOozeShield,0
;   oozeShieldExtruder,999
;   oozeShieldOffset,2
;   oozeShieldOutlines,1
;   oozeShieldSidewallShape,1
;   oozeShieldSidewallAngle,30
;   oozeShieldSpeedMultiplier,1
;   infillExtruder,0
;   internalInfillPattern,Rectilinear
;   externalInfillPattern,Rectilinear
;   infillPercentage,15
;   outlineOverlapPercentage,20
;   infillExtrusionWidthPercentage,100
;   minInfillLength,5
;   infillLayerInterval,1
;   internalInfillAngles,45,-45
;   overlapInternalInfillAngles,0
;   externalInfillAngles,45,-45
;   generateSupport,0
;   supportExtruder,0
;   supportInfillPercentage,25
;   supportExtraInflation,0
;   supportBaseLayers,0
;   denseSupportExtruder,0
;   denseSupportLayers,0
;   denseSupportInfillPercentage,70
;   supportLayerInterval,1
;   supportHorizontalPartOffset,0.3
;   supportUpperSeparationLayers,1
;   supportLowerSeparationLayers,1
;   supportType,0
;   supportGridSpacing,4
;   maxOverhangAngle,45
;   supportAngles,0
;   temperatureName,Primary Extruder,Heated Bed
;   temperatureNumber,0,0
;   temperatureSetpointCount,1,1
;   temperatureSetpointLayers,1,1
;   temperatureSetpointTemperatures,200,60
;   temperatureStabilizeAtStartup,1,1
;   temperatureHeatedBed,0,1
;   fanLayers,1,2
;   fanSpeeds,0,100
;   blipFanToFullPower,0
;   adjustSpeedForCooling,1
;   minSpeedLayerTime,15
;   minCoolingSpeedSlowdown,20
;   increaseFanForCooling,0
;   minFanLayerTime,45
;   maxCoolingFanSpeed,100
;   increaseFanForBridging,0
;   bridgingFanSpeed,100
;   use5D,1
;   relativeEdistances,0
;   allowEaxisZeroing,1
;   independentExtruderAxes,0
;   includeM10123,0
;   stickySupport,1
;   applyToolheadOffsets,0
;   gcodeXoffset,0
;   gcodeYoffset,0
;   gcodeZoffset,0
;   overrideMachineDefinition,1
;   machineTypeOverride,0
;   strokeXoverride,250
;   strokeYoverride,210
;   strokeZoverride,210
;   originOffsetXoverride,0
;   originOffsetYoverride,0
;   originOffsetZoverride,0
;   homeXdirOverride,-1
;   homeYdirOverride,-1
;   homeZdirOverride,-1
;   flipXoverride,1
;   flipYoverride,-1
;   flipZoverride,1
;   toolheadOffsets,0,0|0,0|0,0|0,0|0,0|0,0
;   overrideFirmwareConfiguration,1
;   firmwareTypeOverride,RepRap (Marlin/Repetier/Sprinter)
;   GPXconfigOverride,r2
;   baudRateOverride,115200
;   overridePrinterModels,1
;   printerModelsOverride
;   startingGcode,M115 U3.0.7 ; use the latest firmware version,G28 W ; home all axes without mesh bed leveling,G80 ; run mesh bed leveling routine,G1 Y-3.0 F1000.0 ; prepare to prime,G92 E0 ; reset extrusion distance,G1 X60.0 E9.0  F1000.0 ; priming,G1 X100.0 E12.5  F1000.0 ; priming
;   layerChangeGcode,
;   retractionGcode,
;   toolChangeGcode,
;   endingGcode,G4 ; wait,M106 S0 ; turn off cooling fan,M104 S0 ; turn off extruder,M140 S0 ; turn off bed,G1 X0 Y200 ; part removal,M84 ; disable motors
;   exportFileFormat,gcode
;   celebration,0
;   celebrationSong,Random Song
;   postProcessing,
;   defaultSpeed,4800
;   outlineUnderspeed,0.5
;   solidInfillUnderspeed,0.8
;   supportUnderspeed,0.8
;   rapidXYspeed,12000
;   rapidZspeed,1002
;   minBridgingArea,50
;   bridgingExtraInflation,0
;   bridgingExtrusionMultiplier,1
;   bridgingSpeedMultiplier,1
;   useFixedBridgingAngle,0
;   fixedBridgingAngle,0
;   applyBridgingToPerimeters,0
;   filamentDiameters,1.75|1.75|1.75|1.75|1.75|1.75
;   filamentPricesPerKg,46|46|46|46|46|46
;   filamentDensities,1.25|1.25|1.25|1.25|1.25|1.25
;   useMinPrintHeight,0
;   minPrintHeight,0
;   useMaxPrintHeight,0
;   maxPrintHeight,0
;   useDiaphragm,0
;   diaphragmLayerInterval,20
;   robustSlicing,1
;   mergeAllIntoSolid,0
;   onlyRetractWhenCrossingOutline,1
;   retractBetweenLayers,1
;   useRetractionMinTravel,0
;   retractionMinTravel,3
;   retractWhileWiping,1
;   onlyWipeOutlines,1
;   avoidCrossingOutline,0
;   maxMovementDetourFactor,3
;   toolChangeRetractionDistance,12
;   toolChangeExtraRestartDistance,-0.5
;   toolChangeRetractionSpeed,600
;   externalThinWallType,0
;   internalThinWallType,2
;   thinWallAllowedOverlapPercentage,25
;   singleExtrusionMinLength,1
;   singleExtrusionMinPrintingWidthPercentage,50
;   singleExtrusionMaxPrintingWidthPercentage,200
;   singleExtrusionEndpointExtension,0.2
;   horizontalSizeCompensation,0
G90
M82
M106 S0
M140 S60
M190 S60
M104 S200 T0
M109 S200 T0
M115 U3.0.7 ; use the latest firmware version
G28 W ; home all axes without mesh bed leveling
G80 ; run mesh bed leveling routine
G1 Y-3.0 F1000.0 ; prepare to prime
G92 E0 ; reset extrusion distance
G1 X60.0 E9.0  F1000.0 ; priming
G1 X100.0 E12.5  F1000.0 ; priming
; process Process1
; layer 1, Z = 0.450
T0
G92 E0.0000
G1 E-1.0000 F2400
; feature skirt
; tool H0.450 W0.480
G1 Z0.450 F1002
G1 X62.188 Y56.980 F12000
G1 E0.0000 F2400
G92 E0.0000
G1 X62.480 Y56.688 E0.0370 F2400
G1 X63.290 Y56.008 E0.1320
G1 X63.539 Y55.826 E0.1598
G1 X64.094 Y55.472 E0.2189
G1 X64.365 Y55.323 E0.2466
G1 X65.324 Y54.876 E0.3416
G1 X65.711 Y54.735 E0.3786
G1 X66.783 Y54.448 E0.4782
G1 X67.189 Y54.377 E0.5153
G1 X68.191 Y54.289 E0.6056
G1 X68.280 Y54.285 E0.6136
G1 X68.280 Y51.912 E0.8267
G1 X71.045 Y49.148 E1.1778
G1 X115.955 Y49.148 E5.2109
G1 X118.720 Y51.912 E5.5620
G1 X118.720 Y54.285 E5.7751
G1 X118.809 Y54.289 E5.7831
G1 X119.811 Y54.377 E5.8734
G1 X120.217 Y54.448 E5.9104
G1 X121.289 Y54.735 E6.0101
G1 X121.676 Y54.876 E6.0471
G1 X122.635 Y55.323 E6.1421
G1 X122.906 Y55.472 E6.1698
G1 X123.461 Y55.826 E6.2289
G1 X123.710 Y56.008 E6.2567
G1 X124.520 Y56.688 E6.3517
G1 X124.812 Y56.980 E6.3887
G1 X125.000 Y57.204 E6.4150
G1 X125.188 Y56.980 E6.4413
G1 X125.480 Y56.688 E6.4783
G1 X126.290 Y56.008 E6.5733
G1 X126.539 Y55.826 E6.6011
G1 X127.094 Y55.472 E6.6602
G1 X127.365 Y55.323 E6.6879
G1 X128.324 Y54.876 E6.7829
G1 X128.711 Y54.735 E6.8199
G1 X129.783 Y54.448 E6.9195
G1 X130.189 Y54.377 E6.9565
G1 X131.191 Y54.289 E7.0469
G1 X131.280 Y54.285 E7.0549
G1 X131.280 Y51.912 E7.2680
G1 X134.045 Y49.148 E7.6191
G1 X178.955 Y49.148 E11.6521
G1 X181.720 Y51.912 E12.0033
G1 X181.720 Y54.285 E12.2164
G1 X181.809 Y54.289 E12.2243
G1 X182.811 Y54.377 E12.3147
G1 X183.217 Y54.448 E12.3517
G1 X184.289 Y54.735 E12.4514
G1 X184.676 Y54.876 E12.4884
G1 X185.635 Y55.323 E12.5834
G1 X185.906 Y55.472 E12.6111
G1 X186.461 Y55.826 E12.6702
G1 X186.710 Y56.008 E12.6980
G1 X187.520 Y56.688 E12.7930
G1 X187.812 Y56.980 E12.8300
G1 X188.492 Y57.790 E12.9250
G1 X188.674 Y58.039 E12.9527
G1 X189.028 Y58.594 E13.0118
G1 X189.177 Y58.865 E13.0396
G1 X189.624 Y59.824 E13.1346
G1 X189.765 Y60.211 E13.1716
G1 X190.052 Y61.283 E13.2712
G1 X190.123 Y61.689 E13.3082
G1 X190.211 Y62.691 E13.3986
G1 X190.220 Y62.897 E13.4171
G1 X190.220 Y85.088 E15.4098
G1 X187.455 Y87.852 E15.7610
G1 X179.881 Y87.852 E16.4411
G1 X179.765 Y88.289 E16.4817
G1 X179.624 Y88.676 E16.5187
G1 X179.177 Y89.635 E16.6137
G1 X179.097 Y89.780 E16.6286
G1 X182.455 Y89.780 E16.9301
G1 X185.220 Y92.545 E17.2813
G1 X185.220 Y130.955 E20.7306
G1 X184.241 Y131.934 E20.8549
G1 X184.352 Y132.045 E20.8690
G1 X184.352 Y159.955 E23.3754
G1 X181.588 Y162.720 E23.7265
G1 X125.412 Y162.720 E28.7712
G1 X123.000 Y160.308 E29.0776
G1 X120.588 Y162.720 E29.3840
G1 X64.411 Y162.720 E34.4288
G1 X61.646 Y159.955 E34.7799
G1 X61.646 Y132.821 E37.2166
G1 X59.780 Y130.955 E37.4536
G1 X59.780 Y92.545 E40.9029
G1 X62.545 Y89.780 E41.2540
G1 X70.903 Y89.780 E42.0046
G1 X70.823 Y89.635 E42.0195
G1 X70.398 Y88.723 E42.1099
G1 X70.286 Y88.435 E42.1376
G1 X70.103 Y87.852 E42.1925
G1 X62.545 Y87.852 E42.8711
G1 X59.780 Y85.088 E43.2223
G1 X59.780 Y62.897 E45.2151
G1 X59.789 Y62.691 E45.2336
G1 X59.872 Y61.740 E45.3193
G1 X59.919 Y61.435 E45.3470
G1 X60.050 Y60.843 E45.4015
G1 X60.104 Y60.644 E45.4200
G1 X60.286 Y60.065 E45.4745
G1 X60.398 Y59.777 E45.5022
G1 X60.823 Y58.865 E45.5926
G1 X60.972 Y58.594 E45.6203
G1 X61.326 Y58.039 E45.6794
G1 X61.508 Y57.790 E45.7072
G1 X62.188 Y56.980 E45.8022
G92 E0.0000
G1 E-1.0000 F2400
G1 X62.543 Y57.304 F12000
G1 E0.0000 F2400
G92 E0.0000
G1 X62.804 Y57.043 E0.0333 F2400
G1 X63.587 Y56.386 E0.1250
G1 X63.811 Y56.222 E0.1499
G1 X64.339 Y55.885 E0.2062
G1 X64.582 Y55.752 E0.2311
G1 X65.508 Y55.320 E0.3228
G1 X65.856 Y55.194 E0.3560
G1 X66.887 Y54.917 E0.4519
G1 X67.251 Y54.853 E0.4852
G1 X68.223 Y54.768 E0.5727
G1 X68.407 Y54.760 E0.5893
G1 X68.760 Y54.760 E0.6210
G1 X68.760 Y52.111 E0.8588
G1 X71.244 Y49.628 E1.1743
G1 X115.756 Y49.628 E5.1716
G1 X118.240 Y52.111 E5.4870
G1 X118.240 Y54.760 E5.7249
G1 X118.593 Y54.760 E5.7565
G1 X118.777 Y54.768 E5.7732
G1 X119.749 Y54.853 E5.8607
G1 X120.113 Y54.917 E5.8940
G1 X121.144 Y55.194 E5.9898
G1 X121.492 Y55.320 E6.0231
G1 X122.418 Y55.752 E6.1148
G1 X122.661 Y55.885 E6.1397
G1 X123.189 Y56.222 E6.1960
G1 X123.413 Y56.386 E6.2209
G1 X124.196 Y57.043 E6.3126
G1 X124.457 Y57.304 E6.3459
G1 X125.000 Y57.951 E6.4217
G1 X125.543 Y57.304 E6.4974
G1 X125.804 Y57.043 E6.5307
G1 X126.587 Y56.386 E6.6224
G1 X126.811 Y56.222 E6.6473
G1 X127.339 Y55.885 E6.7036
G1 X127.582 Y55.752 E6.7285
G1 X128.508 Y55.320 E6.8202
G1 X128.856 Y55.194 E6.8535
G1 X129.887 Y54.917 E6.9493
G1 X130.251 Y54.853 E6.9826
G1 X131.223 Y54.768 E7.0701
G1 X131.407 Y54.760 E7.0868
G1 X131.760 Y54.760 E7.1184
G1 X131.760 Y52.111 E7.3563
G1 X134.244 Y49.628 E7.6717
G1 X178.756 Y49.628 E11.6690
G1 X181.240 Y52.111 E11.9845
G1 X181.240 Y54.760 E12.2223
G1 X181.593 Y54.760 E12.2540
G1 X181.777 Y54.768 E12.2706
G1 X182.749 Y54.853 E12.3582
G1 X183.113 Y54.917 E12.3914
G1 X184.144 Y55.194 E12.4873
G1 X184.492 Y55.320 E12.5205
G1 X185.418 Y55.752 E12.6122
G1 X185.661 Y55.885 E12.6371
G1 X186.189 Y56.222 E12.6934
G1 X186.413 Y56.386 E12.7183
G1 X187.196 Y57.043 E12.8101
G1 X187.457 Y57.304 E12.8433
G1 X188.114 Y58.087 E12.9350
G1 X188.278 Y58.310 E12.9599
G1 X188.615 Y58.839 E13.0162
G1 X188.748 Y59.082 E13.0411
G1 X189.180 Y60.008 E13.1328
G1 X189.306 Y60.356 E13.1661
G1 X189.583 Y61.387 E13.2619
G1 X189.647 Y61.751 E13.2952
G1 X189.732 Y62.723 E13.3827
G1 X189.740 Y62.907 E13.3994
G1 X189.740 Y84.889 E15.3733
G1 X187.256 Y87.372 E15.6888
G1 X179.513 Y87.372 E16.3841
G1 X179.306 Y88.144 E16.4559
G1 X179.180 Y88.492 E16.4891
G1 X178.748 Y89.418 E16.5808
G1 X178.615 Y89.661 E16.6057
G1 X178.278 Y90.190 E16.6620
G1 X178.226 Y90.260 E16.6699
G1 X182.256 Y90.260 E17.0318
G1 X184.740 Y92.744 E17.3472
G1 X184.740 Y130.756 E20.7608
G1 X183.563 Y131.934 E20.9104
G1 X183.872 Y132.244 E20.9497
G1 X183.872 Y159.756 E23.4204
G1 X181.389 Y162.240 E23.7358
G1 X125.611 Y162.240 E28.7448
G1 X123.128 Y159.756 E29.0602
G1 X123.128 Y133.240 E31.4414
G1 X122.872 Y133.240 E31.4644
G1 X122.872 Y159.756 E33.8456
G1 X120.389 Y162.240 E34.1610
G1 X64.610 Y162.240 E39.1701
G1 X62.126 Y159.756 E39.4855
G1 X62.126 Y132.622 E41.9223
G1 X60.260 Y130.756 E42.1592
G1 X60.260 Y92.744 E45.5728
G1 X62.744 Y90.260 E45.8883
G1 X71.774 Y90.260 E46.6992
G1 X71.722 Y90.189 E46.7070
G1 X71.385 Y89.661 E46.7633
G1 X71.252 Y89.418 E46.7882
G1 X70.840 Y88.534 E46.8758
G1 X70.739 Y88.275 E46.9007
G1 X70.551 Y87.678 E46.9570
G1 X70.485 Y87.408 E46.9819
G1 X70.478 Y87.372 E46.9851
G1 X62.744 Y87.372 E47.6797
G1 X60.260 Y84.889 E47.9952
G1 X60.260 Y62.907 E49.9692
G1 X60.268 Y62.723 E49.9858
G1 X60.349 Y61.798 E50.0692
G1 X60.391 Y61.523 E50.0941
G1 X60.517 Y60.957 E50.1462
G1 X60.565 Y60.778 E50.1628
G1 X60.739 Y60.225 E50.2149
G1 X60.840 Y59.966 E50.2399
G1 X61.252 Y59.082 E50.3274
G1 X61.385 Y58.839 E50.3523
G1 X61.722 Y58.311 E50.4086
G1 X61.886 Y58.087 E50.4335
G1 X62.543 Y57.304 E50.5252
G92 E0.0000
G1 E-1.0000 F2400
; feature inner perimeter
G1 X66.181 Y60.681 F12000
G1 E0.0000 F2400
G92 E0.0000
G1 X66.392 Y60.488 E0.0257 F1800
G1 X66.619 Y60.314 E0.0514
G1 X66.860 Y60.160 E0.0771
G1 X67.114 Y60.028 E0.1028
G1 X67.378 Y59.918 E0.1285
G1 X67.651 Y59.832 E0.1541
G1 X67.930 Y59.771 E0.1798
G1 X68.214 Y59.733 E0.2055
G1 X68.516 Y59.720 E0.2326
G1 X73.720 Y59.720 E0.7000
G1 X73.720 Y54.588 E1.1609
G1 X113.280 Y54.588 E4.7135
G1 X113.280 Y59.720 E5.1744
G1 X118.484 Y59.720 E5.6417
G1 X118.786 Y59.733 E5.6688
G1 X119.070 Y59.771 E5.6945
G1 X119.349 Y59.832 E5.7202
G1 X119.621 Y59.918 E5.7459
G1 X119.886 Y60.028 E5.7716
G1 X120.140 Y60.160 E5.7973
G1 X120.381 Y60.314 E5.8230
G1 X120.608 Y60.488 E5.8487
G1 X120.819 Y60.681 E5.8744
G1 X121.012 Y60.892 E5.9001
G1 X121.186 Y61.119 E5.9258
G1 X121.340 Y61.360 E5.9514
G1 X121.472 Y61.614 E5.9771
G1 X121.582 Y61.878 E6.0028
G1 X121.668 Y62.151 E6.0285
G1 X121.729 Y62.430 E6.0542
G1 X121.767 Y62.714 E6.0799
G1 X121.780 Y63.016 E6.1070
G1 X121.780 Y82.412 E7.8489
G1 X114.720 Y82.412 E8.4829
G1 X114.720 Y76.780 E8.9887
G1 X111.780 Y76.780 E9.2527
G1 X111.780 Y85.484 E10.0344
G1 X111.767 Y85.786 E10.0615
G1 X111.729 Y86.070 E10.0872
G1 X111.668 Y86.349 E10.1129
G1 X111.582 Y86.622 E10.1385
G1 X111.472 Y86.886 E10.1642
G1 X111.340 Y87.140 E10.1899
G1 X111.186 Y87.381 E10.2156
G1 X111.012 Y87.608 E10.2413
G1 X110.819 Y87.819 E10.2670
G1 X110.608 Y88.012 E10.2927
G1 X110.381 Y88.186 E10.3184
G1 X110.140 Y88.340 E10.3441
G1 X109.886 Y88.472 E10.3698
G1 X109.621 Y88.582 E10.3955
G1 X109.349 Y88.668 E10.4211
G1 X109.070 Y88.729 E10.4468
G1 X108.786 Y88.767 E10.4725
G1 X108.484 Y88.780 E10.4996
G1 X78.516 Y88.780 E13.1909
G1 X78.214 Y88.767 E13.2180
G1 X77.930 Y88.729 E13.2437
G1 X77.651 Y88.668 E13.2694
G1 X77.378 Y88.582 E13.2951
G1 X77.114 Y88.472 E13.3207
G1 X76.860 Y88.340 E13.3464
G1 X76.619 Y88.186 E13.3721
G1 X76.392 Y88.012 E13.3978
G1 X76.181 Y87.819 E13.4235
G1 X75.988 Y87.608 E13.4492
G1 X75.814 Y87.381 E13.4749
G1 X75.660 Y87.140 E13.5006
G1 X75.528 Y86.886 E13.5263
G1 X75.418 Y86.622 E13.5520
G1 X75.332 Y86.349 E13.5776
G1 X75.270 Y86.069 E13.6034
G1 X75.233 Y85.786 E13.6290
G1 X75.220 Y85.484 E13.6561
G1 X75.220 Y76.780 E14.4378
G1 X72.280 Y76.780 E14.7018
G1 X72.280 Y82.412 E15.2076
G1 X65.220 Y82.412 E15.8416
G1 X65.220 Y63.016 E17.5835
G1 X65.232 Y62.750 E17.6074
G1 X65.271 Y62.427 E17.6366
G1 X65.332 Y62.151 E17.6620
G1 X65.418 Y61.878 E17.6877
G1 X65.528 Y61.614 E17.7134
G1 X65.660 Y61.360 E17.7391
G1 X65.814 Y61.119 E17.7647
G1 X65.988 Y60.892 E17.7904
G1 X66.046 Y60.829 E17.7982
G1 X66.181 Y60.681 F1800
; feature outer perimeter
G1 X65.841 Y60.341 F12000
G92 E0.0000
G1 X66.083 Y60.120 E0.0295 F1200
G1 X66.343 Y59.920 E0.0589
G1 X66.620 Y59.744 E0.0884
G1 X66.911 Y59.593 E0.1178
G1 X67.214 Y59.467 E0.1473
G1 X67.527 Y59.368 E0.1767
G1 X67.847 Y59.297 E0.2062
G1 X68.172 Y59.255 E0.2356
G1 X68.505 Y59.240 E0.2656
G1 X73.240 Y59.240 E0.6908
G1 X73.240 Y54.108 E1.1517
G1 X113.760 Y54.108 E4.7905
G1 X113.760 Y59.240 E5.2514
