; G-Code generated by Simplify3D(R) Version 4.1.1
; Jul 25, 2019 at 2:55:37 PM
; Settings Summary
;   processName,Process1
;   applyToModels,Shoulder Servo Holder,Shoulder Servo Holder(2),Shoulder Servo Holder(3),Shoulder Servo Holder(4)
;   profileName,Prusa Research Original Prusa i3 MK2 (modified)
;   profileVersion,2016-11-25 08:00:00
;   baseProfile,
;   printMaterial,PLA
;   printQuality,Medium
;   printExtruders,
;   extruderName,Primary Extruder
;   extruderToolheadNumber,0
;   extruderDiameter,0.4
;   extruderAutoWidth,1
;   extruderWidth,0.48
;   extrusionMultiplier,1
;   extruderUseRetract,1
;   extruderRetractionDistance,1.5
;   extruderExtraRestartDistance,0
;   extruderRetractionZLift,0
;   extruderRetractionSpeed,1800
;   extruderUseCoasting,1
;   extruderCoastingDistance,0.2
;   extruderUseWipe,1
;   extruderWipeDistance,2
;   primaryExtruder,0
;   layerHeight,0.2
;   topSolidLayers,3
;   bottomSolidLayers,3
;   perimeterOutlines,3
;   printPerimetersInsideOut,1
;   startPointOption,2
;   startPointOriginX,0
;   startPointOriginY,0
;   sequentialIslands,0
;   spiralVaseMode,0
;   firstLayerHeightPercentage,150
;   firstLayerWidthPercentage,100
;   firstLayerUnderspeed,0.5
;   useRaft,0
;   raftExtruder,0
;   raftTopLayers,3
;   raftBaseLayers,2
;   raftOffset,3
;   raftSeparationDistance,0.14
;   raftTopInfill,100
;   aboveRaftSpeedMultiplier,0.3
;   useSkirt,1
;   skirtExtruder,0
;   skirtLayers,1
;   skirtOutlines,2
;   skirtOffset,4
;   usePrimePillar,0
;   primePillarExtruder,999
;   primePillarWidth,12
;   primePillarLocation,7
;   primePillarSpeedMultiplier,1
;   useOozeShield,0
;   oozeShieldExtruder,999
;   oozeShieldOffset,2
;   oozeShieldOutlines,1
;   oozeShieldSidewallShape,1
;   oozeShieldSidewallAngle,30
;   oozeShieldSpeedMultiplier,1
;   infillExtruder,0
;   internalInfillPattern,Rectilinear
;   externalInfillPattern,Rectilinear
;   infillPercentage,20
;   outlineOverlapPercentage,20
;   infillExtrusionWidthPercentage,100
;   minInfillLength,5
;   infillLayerInterval,1
;   internalInfillAngles,45,-45
;   overlapInternalInfillAngles,0
;   externalInfillAngles,45,-45
;   generateSupport,0
;   supportExtruder,0
;   supportInfillPercentage,30
;   supportExtraInflation,0
;   supportBaseLayers,0
;   denseSupportExtruder,0
;   denseSupportLayers,0
;   denseSupportInfillPercentage,70
;   supportLayerInterval,1
;   supportHorizontalPartOffset,0.3
;   supportUpperSeparationLayers,1
;   supportLowerSeparationLayers,1
;   supportType,0
;   supportGridSpacing,4
;   maxOverhangAngle,45
;   supportAngles,0
;   temperatureName,Primary Extruder,Heated Bed
;   temperatureNumber,0,0
;   temperatureSetpointCount,1,1
;   temperatureSetpointLayers,1,1
;   temperatureSetpointTemperatures,200,60
;   temperatureStabilizeAtStartup,1,1
;   temperatureHeatedBed,0,1
;   fanLayers,1,2
;   fanSpeeds,0,100
;   blipFanToFullPower,0
;   adjustSpeedForCooling,1
;   minSpeedLayerTime,15
;   minCoolingSpeedSlowdown,20
;   increaseFanForCooling,0
;   minFanLayerTime,45
;   maxCoolingFanSpeed,100
;   increaseFanForBridging,0
;   bridgingFanSpeed,100
;   use5D,1
;   relativeEdistances,0
;   allowEaxisZeroing,1
;   independentExtruderAxes,0
;   includeM10123,0
;   stickySupport,1
;   applyToolheadOffsets,0
;   gcodeXoffset,0
;   gcodeYoffset,0
;   gcodeZoffset,0
;   overrideMachineDefinition,1
;   machineTypeOverride,0
;   strokeXoverride,250
;   strokeYoverride,210
;   strokeZoverride,200
;   originOffsetXoverride,0
;   originOffsetYoverride,0
;   originOffsetZoverride,0
;   homeXdirOverride,-1
;   homeYdirOverride,-1
;   homeZdirOverride,-1
;   flipXoverride,1
;   flipYoverride,-1
;   flipZoverride,1
;   toolheadOffsets,0,0|0,0|0,0|0,0|0,0|0,0
;   overrideFirmwareConfiguration,1
;   firmwareTypeOverride,RepRap (Marlin/Repetier/Sprinter)
;   GPXconfigOverride,r2
;   baudRateOverride,250000
;   overridePrinterModels,1
;   printerModelsOverride
;   startingGcode,M115 U3.0.7 ; use the latest firmware version,G28 W ; home all axes without mesh bed leveling,G80 ; run mesh bed leveling routine,G1 Y-3.0 F1000.0 ; prepare to prime,G92 E0 ; reset extrusion distance,G1 X60.0 E9.0  F1000.0 ; priming,G1 X100.0 E12.5  F1000.0 ; priming
;   layerChangeGcode,
;   retractionGcode,
;   toolChangeGcode,
;   endingGcode,M106 S0 ; turn off cooling fan,M104 S0 ; turn off extruder,M140 S0 ; turn off bed,G1 X0 Y200 ; part removal,M84 ; disable motors
;   exportFileFormat,gcode
;   celebration,0
;   celebrationSong,Random Song
;   postProcessing,
;   defaultSpeed,2400
;   outlineUnderspeed,0.8
;   solidInfillUnderspeed,0.8
;   supportUnderspeed,0.8
;   rapidXYspeed,4800
;   rapidZspeed,1002
;   minBridgingArea,50
;   bridgingExtraInflation,0
;   bridgingExtrusionMultiplier,1
;   bridgingSpeedMultiplier,1
;   useFixedBridgingAngle,0
;   fixedBridgingAngle,0
;   applyBridgingToPerimeters,0
;   filamentDiameters,1.75|1.75|1.75|1.75|1.75|1.75
;   filamentPricesPerKg,46|46|46|46|46|46
;   filamentDensities,1.25|1.25|1.25|1.25|1.25|1.25
;   useMinPrintHeight,0
;   minPrintHeight,0
;   useMaxPrintHeight,0
;   maxPrintHeight,0
;   useDiaphragm,0
;   diaphragmLayerInterval,20
;   robustSlicing,1
;   mergeAllIntoSolid,0
;   onlyRetractWhenCrossingOutline,1
;   retractBetweenLayers,1
;   useRetractionMinTravel,0
;   retractionMinTravel,3
;   retractWhileWiping,1
;   onlyWipeOutlines,1
;   avoidCrossingOutline,0
;   maxMovementDetourFactor,3
;   toolChangeRetractionDistance,12
;   toolChangeExtraRestartDistance,-0.5
;   toolChangeRetractionSpeed,600
;   externalThinWallType,0
;   internalThinWallType,2
;   thinWallAllowedOverlapPercentage,25
;   singleExtrusionMinLength,1
;   singleExtrusionMinPrintingWidthPercentage,50
;   singleExtrusionMaxPrintingWidthPercentage,200
;   singleExtrusionEndpointExtension,0.2
;   horizontalSizeCompensation,0
G90
M82
M106 S0
M140 S60
M190 S60
M104 S200 T0
M109 S200 T0
M115 U3.0.7 ; use the latest firmware version
G28 W ; home all axes without mesh bed leveling
G80 ; run mesh bed leveling routine
G1 Y-3.0 F1000.0 ; prepare to prime
G92 E0 ; reset extrusion distance
G1 X60.0 E9.0  F1000.0 ; priming
G1 X100.0 E12.5  F1000.0 ; priming
; process Process1
; layer 1, Z = 0.300
T0
G92 E0.0000
G1 E-1.5000 F1800
; feature skirt
; tool H0.300 W0.480
G1 Z0.300 F1002
G1 X74.780 Y76.145 F4800
G1 E0.0000 F1800
G92 E0.0000
G1 X77.545 Y73.380 E0.2341 F1200
G1 X100.455 Y73.380 E1.6057
G1 X101.000 Y73.925 E1.6518
G1 X101.545 Y73.380 E1.6980
G1 X124.455 Y73.380 E3.0696
G1 X125.000 Y73.925 E3.1157
G1 X125.545 Y73.380 E3.1618
G1 X148.455 Y73.380 E4.5334
G1 X149.000 Y73.925 E4.5796
G1 X149.545 Y73.380 E4.6257
G1 X172.455 Y73.380 E5.9973
G1 X175.220 Y76.145 E6.2314
G1 X175.220 Y133.855 E9.6864
G1 X172.455 Y136.620 E9.9205
G1 X149.545 Y136.620 E11.2921
G1 X149.000 Y136.075 E11.3382
G1 X148.455 Y136.620 E11.3843
G1 X125.545 Y136.620 E12.7559
G1 X125.000 Y136.075 E12.8021
G1 X124.455 Y136.620 E12.8482
G1 X101.545 Y136.620 E14.2198
G1 X101.000 Y136.075 E14.2659
G1 X100.455 Y136.620 E14.3121
G1 X77.545 Y136.620 E15.6837
G1 X74.780 Y133.855 E15.9178
G1 X74.780 Y76.145 E19.3728
G92 E0.0000
G1 E-1.5000 F1800
G1 X75.260 Y76.344 F4800
G1 E0.0000 F1800
G92 E0.0000
G1 X77.744 Y73.860 E0.2103 F1200
G1 X100.256 Y73.860 E1.5581
G1 X101.000 Y74.604 E1.6210
G1 X101.744 Y73.860 E1.6840
G1 X124.256 Y73.860 E3.0318
G1 X125.000 Y74.604 E3.0948
G1 X125.744 Y73.860 E3.1577
G1 X148.256 Y73.860 E4.5055
G1 X149.000 Y74.604 E4.5685
G1 X149.744 Y73.860 E4.6315
G1 X172.256 Y73.860 E5.9792
G1 X174.740 Y76.344 E6.1895
G1 X174.740 Y133.656 E9.6207
G1 X172.256 Y136.140 E9.8310
G1 X149.744 Y136.140 E11.1788
G1 X149.000 Y135.396 E11.2418
G1 X148.256 Y136.140 E11.3048
G1 X125.744 Y136.140 E12.6525
G1 X125.000 Y135.396 E12.7155
G1 X124.256 Y136.140 E12.7785
G1 X101.744 Y136.140 E14.1263
G1 X101.000 Y135.396 E14.1892
G1 X100.256 Y136.140 E14.2522
G1 X77.744 Y136.140 E15.6000
G1 X75.260 Y133.656 E15.8103
G1 X75.260 Y76.344 E19.2415
G92 E0.0000
G1 E-1.5000 F1800
; feature inner perimeter
G1 X80.700 Y79.300 F4800
G1 E0.0000 F1800
G92 E0.0000
G1 X97.300 Y79.300 E0.9938 F1080
G1 X97.300 Y130.700 E4.0710
G1 X80.700 Y130.700 E5.0649
G1 X80.700 Y79.500 E8.1301
G1 X80.700 Y79.300 F1080
G1 X80.220 Y78.820 F4800
G92 E0.0000
G1 X97.780 Y78.820 E1.0513 F1080
G1 X97.780 Y131.180 E4.1860
G1 X80.220 Y131.180 E5.2373
G1 X80.220 Y79.020 E8.3600
G1 X80.220 Y78.820 F1080
; feature outer perimeter
G1 X79.740 Y78.340 F4800
G92 E0.0000
G1 X98.260 Y78.340 E1.1088 F960
G1 X98.260 Y131.660 E4.3009
G1 X79.740 Y131.660 E5.4097
G1 X79.740 Y78.540 E8.5899
G1 X79.740 Y78.340 F960
G1 X81.740 Y78.340 F960
; feature solid layer
G1 X96.290 Y79.684 F4800
G92 E0.0000
G1 X96.916 Y80.310 E0.0530 F960
G1 X96.916 Y80.989 E0.0937
G1 X95.611 Y79.684 E0.2041
G1 X94.932 Y79.684 E0.2448
G1 X96.916 Y81.668 E0.4127
G1 X96.916 Y82.347 E0.4534
G1 X94.253 Y79.684 E0.6788
G1 X93.575 Y79.684 E0.7194
G1 X96.916 Y83.025 E1.0023
G1 X96.916 Y83.704 E1.0430
G1 X92.896 Y79.684 E1.3834
G1 X92.217 Y79.684 E1.4240
G1 X96.916 Y84.383 E1.8219
G1 X96.916 Y85.062 E1.8625
G1 X91.538 Y79.684 E2.3178
G1 X90.859 Y79.684 E2.3585
G1 X96.916 Y85.741 E2.8713
G1 X96.916 Y86.420 E2.9119
G1 X90.180 Y79.684 E3.4822
G1 X89.502 Y79.684 E3.5228
G1 X96.916 Y87.098 E4.1506
G1 X96.916 Y87.777 E4.1912
G1 X88.823 Y79.684 E4.8764
G1 X88.144 Y79.684 E4.9171
G1 X96.916 Y88.456 E5.6598
G1 X96.916 Y89.135 E5.7004
G1 X87.465 Y79.684 E6.5006
G1 X86.786 Y79.684 E6.5412
G1 X96.916 Y89.814 E7.3988
G1 X96.916 Y90.492 E7.4395
G1 X86.108 Y79.684 E8.3546
G1 X85.429 Y79.684 E8.3952
G1 X96.916 Y91.171 E9.3678
G1 X96.916 Y91.850 E9.4085
G1 X84.750 Y79.684 E10.4385
G1 X84.071 Y79.684 E10.4792
G1 X96.916 Y92.529 E11.5667
G1 X96.916 Y93.208 E11.6073
G1 X83.392 Y79.684 E12.7523
G1 X82.713 Y79.684 E12.7930
G1 X96.916 Y93.887 E13.9955
G1 X96.916 Y94.565 E14.0361
G1 X82.035 Y79.684 E15.2961
G1 X81.356 Y79.684 E15.3367
G1 X96.916 Y95.244 E16.6541
G1 X96.916 Y95.923 E16.6948
G1 X81.084 Y80.091 E18.0352
G1 X81.084 Y80.770 E18.0758
G1 X96.916 Y96.602 E19.4163
G1 X96.916 Y97.281 E19.4569
G1 X81.084 Y81.449 E20.7974
G1 X81.084 Y82.127 E20.8380
G1 X96.916 Y97.959 E22.1784
G1 X96.916 Y98.638 E22.2191
G1 X81.084 Y82.806 E23.5595
G1 X81.084 Y83.485 E23.6002
G1 X96.916 Y99.317 E24.9406
G1 X96.916 Y99.996 E24.9812
G1 X81.084 Y84.164 E26.3217
G1 X81.084 Y84.843 E26.3623
G1 X96.916 Y100.675 E27.7028
G1 X96.916 Y101.354 E27.7434
G1 X81.084 Y85.522 E29.0838
G1 X81.084 Y86.200 E29.1245
G1 X96.916 Y102.032 E30.4649
G1 X96.916 Y102.711 E30.5056
G1 X81.084 Y86.879 E31.8460
G1 X81.084 Y87.558 E31.8866
G1 X96.916 Y103.390 E33.2271
G1 X96.916 Y104.069 E33.2677
G1 X81.084 Y88.237 E34.6082
G1 X81.084 Y88.916 E34.6488
G1 X96.916 Y104.748 E35.9892
G1 X96.916 Y105.427 E36.0299
G1 X81.084 Y89.595 E37.3703
G1 X81.084 Y90.273 E37.4110
G1 X96.916 Y106.105 E38.7514
G1 X96.916 Y106.784 E38.7920
G1 X81.084 Y90.952 E40.1325
G1 X81.084 Y91.631 E40.1731
G1 X96.916 Y107.463 E41.5136
G1 X96.916 Y108.142 E41.5542
G1 X81.084 Y92.310 E42.8946
G1 X81.084 Y92.989 E42.9353
G1 X96.916 Y108.821 E44.2757
G1 X96.916 Y109.499 E44.3164
G1 X81.084 Y93.667 E45.6568
G1 X81.084 Y94.346 E45.6974
G1 X96.916 Y110.178 E47.0379
G1 X96.916 Y110.857 E47.0785
G1 X81.084 Y95.025 E48.4190
G1 X81.084 Y95.704 E48.4596
G1 X96.916 Y111.536 E49.8000
G1 X96.916 Y112.215 E49.8407
G1 X81.084 Y96.383 E51.1811
G1 X81.084 Y97.062 E51.2218
G1 X96.916 Y112.894 E52.5622
G1 X96.916 Y113.572 E52.6028
G1 X81.084 Y97.740 E53.9433
G1 X81.084 Y98.419 E53.9839
G1 X96.916 Y114.251 E55.3244
G1 X96.916 Y114.930 E55.3650
G1 X81.084 Y99.098 E56.7054
G1 X81.084 Y99.777 E56.7461
G1 X96.916 Y115.609 E58.0865
G1 X96.916 Y116.288 E58.1272
G1 X81.084 Y100.456 E59.4676
G1 X81.084 Y101.135 E59.5082
G1 X96.916 Y116.967 E60.8487
G1 X96.916 Y117.645 E60.8893
G1 X81.084 Y101.813 E62.2297
G1 X81.084 Y102.492 E62.2704
G1 X96.916 Y118.324 E63.6108
G1 X96.916 Y119.003 E63.6515
G1 X81.084 Y103.171 E64.9919
G1 X81.084 Y103.850 E65.0325
G1 X96.916 Y119.682 E66.3730
G1 X96.916 Y120.361 E66.4136
G1 X81.084 Y104.529 E67.7541
G1 X81.084 Y105.207 E67.7947
G1 X96.916 Y121.039 E69.1351
G1 X96.916 Y121.718 E69.1758
G1 X81.084 Y105.886 E70.5162
G1 X81.084 Y106.565 E70.5569
G1 X96.916 Y122.397 E71.8973
G1 X96.916 Y123.076 E71.9379
G1 X81.084 Y107.244 E73.2784
G1 X81.084 Y107.923 E73.3190
G1 X96.916 Y123.755 E74.6595
G1 X96.916 Y124.434 E74.7001
G1 X81.084 Y108.602 E76.0405
G1 X81.084 Y109.280 E76.0812
G1 X96.916 Y125.112 E77.4216
G1 X96.916 Y125.791 E77.4623
G1 X81.084 Y109.959 E78.8027
G1 X81.084 Y110.638 E78.8433
G1 X96.916 Y126.470 E80.1838
G1 X96.916 Y127.149 E80.2244
G1 X81.084 Y111.317 E81.5649
G1 X81.084 Y111.996 E81.6055
G1 X96.916 Y127.828 E82.9459
G1 X96.916 Y128.506 E82.9866
G1 X81.084 Y112.674 E84.3270
G1 X81.084 Y113.353 E84.3677
G1 X96.916 Y129.185 E85.7081
G1 X96.916 Y129.864 E85.7487
G1 X81.084 Y114.032 E87.0892
G1 X81.084 Y114.711 E87.1298
G1 X96.689 Y130.316 E88.4510
G1 X96.010 Y130.316 E88.4917
G1 X81.084 Y115.390 E89.7554
G1 X81.084 Y116.069 E89.7961
G1 X95.331 Y130.316 E91.0024
G1 X94.653 Y130.316 E91.0430
G1 X81.084 Y116.747 E92.1918
G1 X81.084 Y117.426 E92.2324
G1 X93.974 Y130.316 E93.3238
G1 X93.295 Y130.316 E93.3644
G1 X81.084 Y118.105 E94.3983
G1 X81.084 Y118.784 E94.4389
G1 X92.616 Y130.316 E95.4153
G1 X91.937 Y130.316 E95.4559
G1 X81.084 Y119.463 E96.3748
G1 X81.084 Y120.142 E96.4155
G1 X91.258 Y130.316 E97.2769
G1 X90.580 Y130.316 E97.3175
G1 X81.084 Y120.820 E98.1215
G1 X81.084 Y121.499 E98.1621
G1 X89.901 Y130.316 E98.9086
G1 X89.222 Y130.316 E98.9493
G1 X81.084 Y122.178 E99.6383
G1 X81.084 Y122.857 E99.6789
G1 X88.543 Y130.316 E100.3105
G1 X87.864 Y130.316 E100.3511
G1 X81.084 Y123.536 E100.9252
G1 X81.084 Y124.214 E100.9658
G1 X87.186 Y130.316 E101.4824
G1 X86.507 Y130.316 E101.5230
G1 X81.084 Y124.893 E101.9822
G1 X81.084 Y125.572 E102.0228
G1 X85.828 Y130.316 E102.4244
G1 X85.149 Y130.316 E102.4651
G1 X81.084 Y126.251 E102.8093
G1 X81.084 Y126.930 E102.8499
G1 X84.470 Y130.316 E103.1366
G1 X83.791 Y130.316 E103.1772
G1 X81.084 Y127.609 E103.4065
G1 X81.084 Y128.287 E103.4471
G1 X83.113 Y130.316 E103.6189
G1 X82.434 Y130.316 E103.6595
G1 X81.084 Y128.966 E103.7738
G1 X81.084 Y129.645 E103.8144
G1 X81.614 Y130.175 E103.8592
G1 X81.755 Y130.316 F960
G92 E0.0000
G1 E-1.5000 F1800
; feature inner perimeter
G1 X104.700 Y130.700 F4800
G1 E0.0000 F1800
G92 E0.0000
G1 X104.700 Y79.300 E3.0772 F1080
G1 X121.300 Y79.300 E4.0710
G1 X121.300 Y130.700 E7.1483
G1 X104.900 Y130.700 E8.1301
G1 X104.700 Y130.700 F1080
G1 X104.220 Y131.180 F4800
G92 E0.0000
G1 X104.220 Y78.820 E3.1347 F1080
G1 X121.780 Y78.820 E4.1860
G1 X121.780 Y131.180 E7.3207
G1 X104.420 Y131.180 E8.3600
G1 X104.220 Y131.180 F1080
; feature outer perimeter
G1 X103.740 Y131.660 F4800
G92 E0.0000
G1 X103.740 Y78.340 E3.1922 F960
G1 X122.260 Y78.340 E4.3009
G1 X122.260 Y131.660 E7.4931
G1 X103.940 Y131.660 E8.5899
G1 X103.740 Y131.660 F960
G1 X103.740 Y129.660 F960
; feature solid layer
G1 X105.084 Y129.886 F4800
G92 E0.0000
G1 X105.514 Y130.316 E0.0364 F960
G1 X106.193 Y130.316 E0.0770
G1 X105.084 Y129.207 E0.1709
G1 X105.084 Y128.529 E0.2115
G1 X106.871 Y130.316 E0.3628
G1 X107.550 Y130.316 E0.4035
G1 X105.084 Y127.850 E0.6123
G1 X105.084 Y127.171 E0.6529
G1 X108.229 Y130.316 E0.9192
G1 X108.908 Y130.316 E0.9598
G1 X105.084 Y126.492 E1.2836
G1 X105.084 Y125.813 E1.3242
G1 X109.587 Y130.316 E1.7055
G1 X110.265 Y130.316 E1.7461
G1 X105.084 Y125.135 E2.1848
G1 X105.084 Y124.456 E2.2254
G1 X110.944 Y130.316 E2.7216
G1 X111.623 Y130.316 E2.7622
G1 X105.084 Y123.777 E3.3159
G1 X105.084 Y123.098 E3.3565
G1 X112.302 Y130.316 E3.9677
G1 X112.981 Y130.316 E4.0083
G1 X105.084 Y122.419 E4.6769
G1 X105.084 Y121.740 E4.7175
G1 X113.660 Y130.316 E5.4436
G1 X114.338 Y130.316 E5.4842
G1 X105.084 Y121.062 E6.2678
G1 X105.084 Y120.383 E6.3084
G1 X115.017 Y130.316 E7.1494
G1 X115.696 Y130.316 E7.1901
G1 X105.084 Y119.704 E8.0885
G1 X105.084 Y119.025 E8.1292
G1 X116.375 Y130.316 E9.0851
G1 X117.054 Y130.316 E9.1258
G1 X105.084 Y118.346 E10.1392
G1 X105.084 Y117.667 E10.1799
G1 X117.733 Y130.316 E11.2508
